X:1
T:Title
%%score ( 1 2 ) { 3 | 4 }
L:1/8
Q:1/4=98
M:3/4
K:D
V:1 treble nm="Grand Piano, Soprano"
V:2 treble 
V:3 bass nm="Choir Pad, Bordeaux, Robert Lowry"
V:4 bass 
V:1
 [FA]2 [DF][EG] [FA]2- | [FA][DA] [DB][Dd] [DA]2- | [DA][DF] [CE][DF] [EG]2 | [CA]2 [DF]4 | %4
w: By~Robert~Lowry,~1875 * * *||||
 [FA]2 [DF][EG] [FA]2- | [FA][DA] [DB][Dd] [DA]2- | [DA][Fd] [Ec][EB] [Ed]2 | [E^G]2 [EA]4 | %8
w: ||||
 [EA]2 [Ec][Ed] [Ee]2- | [Ee][Ec] [DB][DA] [DF]2- | [DF][EF] [DF][FB] [Fd]2 | ^G-[DG] [CA]4 | %12
w: ||||
 [EG]2 [DF][EG] [FA]2- | [FA][FA] [GB][Ac] [Bd]2- | [Bd][Ac]/[GB]/ [FA][DF] [CE]2 | [CA]2 D4- | %16
w: ||||
 D4 z2 |] %17
w: |
V:2
 x6 | x6 | x6 | x6 | x6 | x6 | x6 | x6 | x6 | x6 | x6 | .E2 z2 z2 | x6 | x6 | x6 | x6 | x6 |] %17
V:3
 A,2 A,A, A,2- | A,F, G,G, F,2- | F,A, A,A, A,2 | A,2 A,4 | D2 A,A, A,2- | A,F, G,G, F,2- | %6
 F,A, A,^G, B,2 | D2 C4 | C2 A,B, C2- | C[K:bass]A, G,F, A,2- | A,^A, B,D B,2 | B,2 A,4 | %12
 A,2 A,A,[K:treble] D2- | DD DD D2- | DD D[K:bass]A, A,2 | G,2 F,4- | F,4 z2 |] %17
V:4
 D,2 D,D, D,2- | D,D, G,,B,, D,2- | D,D, A,,A,, A,,2 | A,,2 D,4 | D,2 D,D, D,2- | %5
 D,D, G,,B,, D,2- | D,D, E,E, E,2 | E,2 A,4 | A,2 z A, A,2- | A,A,, D,D, D,2- | D,C, B,,B,, B,,2 | %11
 E,2 A,,4 | A,,2 D,D, D,2- | D,D, G,G, G,2- | G,G, D,F, z2 | A,,2 D,4- | D,4 z2 |] %17

